X:1
T:Title
%%score ( 1 2 ) ( 3 4 )
L:1/8
Q:1/4=120
M:2/2
K:Eb
V:1 treble nm="Strings 1, Treble"
V:2 treble 
V:3 bass nm="Strings 1, Bass"
V:4 bass 
V:1
 [EG]4 [EG]2 [EB]2 | [DF]4 F2 G2 | E4 [EA]4 | [EG]8 | [GB]4 [Ac]2 [Ac]2 | [GB]4 [EG]4 | %6
 B2 G2 [FA]2 [EG]2 | [DF]8 | [DF]4 [DF]2 [DG]2 | E4 E4 | [Ec]4 [Ac]4 | [GB]8 | [GB]4 [Ac]2 [GB]2 | %13
 e3- [Fe-] [Ee]2 E2 | z4 .G4 | [B,E]8 |] %16
V:2
 x8 | z4 D4 | x8 | x8 | x8 | x8 | E4 z4 | x8 | x8 | x8 | x8 | x8 | x8 | G4 z4 | [EG]4 D2- [DF]2 | %15
 x8 |] %16
V:3
 [E,B,]4 [E,B,]2 [G,,B,]2 | [B,,B,]4 A,2 B,2 | [C,G,]4 [A,,C]4 | [E,B,]8 | [E,E]4 [E,E]2 [E,E]2 | %5
 [E,E]4 [E,B,]4 | .G,4 B,4 | [B,,B,]8 | [B,,B,]4 [B,,A,]2 [B,,B,]2 | [C,G,]4 [C,G,]2 [G,,B,]2 | %10
 z4 E4 | [E,E]8 | [E,E]4 [E,E]2 [E,E]2 | B,8 | z4 .B,4 | [E,G,]8 |] %16
V:4
 x8 | z4 B,,4 | x8 | x8 | x8 | x8 | B,2- [E,B,]2 D,2 E,2 | x8 | x8 | x8 | [A,,A,]4 A,,2 C,2 | x8 | %12
 x8 | E,3 F, G,2 [=A,C]2 | B,4 B,,2- [B,,A,]2 | x8 |] %16

